assets/svg/1F6BF.svg

<svg xmlns="http://www.w3.org/2000/svg" viewBox="0 0 64 64" enable-background="new 0 0 64 64"><path fill="#638293" d="m63.974 6.909v-6.909h-11.778l-1.934 1.934c-3.313 3.312-6.623 6.623-9.937 9.933-7.379-2.177-16.677.351-19.46 3.136-3.63 3.628 1.875 9.612 8.965 16.702 7.094 7.092 13.08 12.597 16.706 8.965 2.782-2.779 5.312-12.08 3.134-19.458l14.304-14.303"/><g fill="#71929f"><path d="m49.671 21.21c0 0-1.816-2.859-2.901-4.126l-3.388 3.387c2.42 5 4.073 10.31 1.972 15.732-.894 2.306-2.33 4.098-4.102 4.961 2.069.93 3.86.926 5.285-.496 2.782-2.78 5.309-12.08 3.134-19.458"/><path d="M63.974,0h-0.114L48.051,15.804c1.109,1.241,2.154,2.542,3.101,3.924L63.974,6.904V0z"/></g><path fill="#bcbdbf" d="m19.86 15.345c2.292-2.289 10.05 1.745 17.314 9.02 7.272 7.27 11.305 15.02 9.02 17.314-2.297 2.291-10.05-1.742-17.315-9.01-7.271-7.27-11.305-15.02-9.01-17.317"/><path fill="#71929f" d="m22.964 16.626c1.785-1.787 8.149 1.679 14.211 7.737 6.06 6.06 9.521 12.42 7.729 14.209-1.783 1.791-8.148-1.671-14.214-7.733-6.05-6.06-9.518-12.421-7.726-14.213"/><g fill="#405967"><path d="m24.863 18.671c.727-.729 2.32-.316 3.558.918 1.235 1.238 1.645 2.83.914 3.56-.728.73-2.322.318-3.558-.916-1.236-1.238-1.644-2.832-.914-3.562"/><path d="m33.388 23.87c.727-.729 2.318-.316 3.559.918 1.233 1.238 1.646 2.83.914 3.56-.727.73-2.322.318-3.559-.916-1.237-1.238-1.645-2.832-.914-3.562"/><path d="m39.02 33.453c.727-.729 2.318-.316 3.559.918 1.232 1.238 1.645 2.83.914 3.561s-2.322.318-3.559-.916c-1.237-1.239-1.645-2.832-.914-3.563"/><path d="m30.364 30.05c.492-.494 1.571-.214 2.416.624.835.841 1.114 1.92.619 2.416-.494.494-1.576.215-2.414-.622-.839-.841-1.117-1.922-.621-2.418"/></g><path fill="#27a8e0" d="m22.14 34.36c-1.846 1.956-2.036 4.771-.426 6.29 1.61 1.52 4.409 1.165 6.256-.794 1.844-1.954 5.091-8.01 3.479-9.528-1.611-1.52-7.466 2.075-9.309 4.03"/><path fill="#57c6e9" d="m31.32 30.21c-1.783-1.252-7.427 2.226-9.243 4.15-1.858 1.971-2.052 4.807-.426 6.337.739.698 1.728.983 2.763.922.005-4.629 2.742-8.974 6.906-11.409"/><path fill="#27a8e0" d="m11.332 21.293c-2.693-.002-4.873 1.787-4.876 4-.002 2.214 2.177 4.01 4.864 4.01 2.689.004 9.324-1.781 9.326-3.995.004-2.213-6.627-4.01-9.314-4.02"/><path fill="#57c6e9" d="m20.644 25.14c-.308-2.159-6.708-3.885-9.353-3.887-2.713-.004-4.909 1.8-4.909 4.03-.002 1.016.467 1.932 1.22 2.643 3.375-3.17 8.417-4.153 13.04-2.788"/><path fill="#27a8e0" d="m4.115 40.21c-3.097 1.279-4.756 4.381-3.705 6.929 1.053 2.551 4.415 3.581 7.512 2.302 3.095-1.277 9.885-6.492 8.831-9.04-1.051-2.553-9.543-1.465-12.638-.19"/><path fill="#57c6e9" d="m16.673 40.21c-1.383-2.339-9.577-1.275-12.621-.019-3.124 1.285-4.792 4.411-3.733 6.978.481 1.174 1.463 2 2.667 2.463 2.376-5.254 7.709-8.79 13.687-9.422"/><path fill="#27a8e0" d="m19.477 53.942c-1.286 3.095-.263 6.459 2.283 7.517 2.546 1.059 5.652-.592 6.938-3.688 1.283-3.093 2.391-11.581-.155-12.638-2.553-1.058-7.783 5.716-9.07 8.809"/><path fill="#57c6e9" d="m28.348 45.05c-2.632-.674-7.669 5.874-8.933 8.916-1.297 3.117-.267 6.509 2.297 7.573 1.171.486 2.451.38 3.628-.145-2.04-5.396-.771-11.669 3.01-16.344"/></svg>

<?xml version="1.0" encoding="UTF-8" standalone="no"?>
<!-- Generator: Adobe Illustrator 16.0.0, SVG Export Plug-In . SVG Version: 6.00 Build 0)  -->

<svg
   xmlns:dc="http://purl.org/dc/elements/1.1/"
   xmlns:cc="http://creativecommons.org/ns#"
   xmlns:rdf="http://www.w3.org/1999/02/22-rdf-syntax-ns#"
   xmlns:svg="http://www.w3.org/2000/svg"
   xmlns="http://www.w3.org/2000/svg"
   xmlns:sodipodi="http://sodipodi.sourceforge.net/DTD/sodipodi-0.dtd"
   xmlns:inkscape="http://www.inkscape.org/namespaces/inkscape"
   version="1.1"
   id="Layer_1"
   x="0px"
   y="0px"
   width="64px"
   height="64px"
   viewBox="0 0 64 64"
   enable-background="new 0 0 64 64"
   xml:space="preserve"
   inkscape:version="0.48.5 r10040"
   sodipodi:docname="1F6BF.svg"
   inkscape:export-filename="D:\TESTINGEMOJI\SVGTEST\1F6BF.png"
   inkscape:export-xdpi="90"
   inkscape:export-ydpi="90"><metadata
   id="metadata7601"><rdf:RDF><cc:Work
       rdf:about=""><dc:format>image/svg+xml</dc:format><dc:type
         rdf:resource="http://purl.org/dc/dcmitype/StillImage" /><dc:title></dc:title></cc:Work></rdf:RDF></metadata><defs
   id="defs7599" /><sodipodi:namedview
   pagecolor="#ffffff"
   bordercolor="#666666"
   borderopacity="1"
   objecttolerance="10"
   gridtolerance="10"
   guidetolerance="10"
   inkscape:pageopacity="0"
   inkscape:pageshadow="2"
   inkscape:window-width="640"
   inkscape:window-height="480"
   id="namedview7597"
   showgrid="false"
   inkscape:zoom="3.6875"
   inkscape:cx="32"
   inkscape:cy="32"
   inkscape:window-x="570"
   inkscape:window-y="379"
   inkscape:window-maximized="0"
   inkscape:current-layer="Layer_1" />
<g
   id="g7553">
	<path
   fill="#638293"
   d="M63.974,6.909V0H52.196l-1.934,1.934c-3.313,3.312-6.623,6.623-9.937,9.933   c-7.379-2.177-16.677,0.351-19.46,3.136c-3.63,3.628,1.875,9.612,8.965,16.702c7.094,7.092,13.078,12.597,16.706,8.965   c2.782-2.779,5.312-12.079,3.134-19.458L63.974,6.909z"
   id="path7555" />
	<path
   fill="#71929F"
   d="M49.671,21.211c0,0-1.816-2.859-2.901-4.126l-3.388,3.387c2.42,5.005,4.073,10.31,1.972,15.732   c-0.894,2.306-2.33,4.098-4.102,4.961c2.069,0.93,3.86,0.926,5.285-0.496C49.319,37.889,51.846,28.589,49.671,21.211z"
   id="path7557" />
	<path
   fill="#71929F"
   d="M63.974,0h-0.114L48.051,15.804c1.109,1.241,2.154,2.542,3.101,3.924L63.974,6.904V0z"
   id="path7559" />
	<path
   fill="#BCBDBF"
   d="M19.86,15.345c2.292-2.289,10.046,1.745,17.314,9.016c7.272,7.27,11.305,15.023,9.015,17.314   c-2.297,2.291-10.045-1.742-17.315-9.013C21.603,25.392,17.569,17.641,19.86,15.345z"
   id="path7561" />
	<path
   fill="#71929F"
   d="M22.964,16.626c1.785-1.787,8.149,1.679,14.211,7.737c6.057,6.062,9.521,12.42,7.729,14.209   c-1.783,1.791-8.148-1.671-14.214-7.733C24.635,24.782,21.172,18.418,22.964,16.626z"
   id="path7563" />
	<path
   fill="#405967"
   d="M24.863,18.671c0.727-0.729,2.32-0.316,3.558,0.918c1.235,1.238,1.645,2.83,0.914,3.56   c-0.728,0.73-2.322,0.318-3.558-0.916C24.541,20.995,24.133,19.401,24.863,18.671z"
   id="path7565" />
	<path
   fill="#405967"
   d="M33.388,23.87c0.727-0.729,2.318-0.316,3.559,0.918c1.233,1.238,1.646,2.83,0.914,3.56   c-0.727,0.73-2.322,0.318-3.559-0.916C33.065,26.194,32.657,24.6,33.388,23.87z"
   id="path7567" />
	<path
   fill="#405967"
   d="M39.016,33.453c0.727-0.729,2.318-0.316,3.559,0.918c1.232,1.238,1.645,2.83,0.914,3.561   s-2.322,0.318-3.559-0.916C38.693,35.777,38.285,34.184,39.016,33.453z"
   id="path7569" />
	<path
   fill="#405967"
   d="M30.364,30.054c0.492-0.494,1.571-0.214,2.416,0.624c0.835,0.841,1.114,1.92,0.619,2.416   c-0.494,0.494-1.576,0.215-2.414-0.622C30.146,31.631,29.868,30.55,30.364,30.054z"
   id="path7571" />
	<g
   id="g7573">
		<path
   fill="#27A8E0"
   d="M22.137,34.357c-1.846,1.956-2.036,4.771-0.426,6.29c1.61,1.52,4.409,1.165,6.256-0.794    c1.844-1.954,5.091-8.01,3.479-9.528C29.835,28.805,23.98,32.4,22.137,34.357z"
   id="path7575" />
		<path
   fill="#57C6E9"
   d="M31.323,30.211c-1.783-1.252-7.427,2.226-9.243,4.15c-1.858,1.971-2.052,4.807-0.426,6.337    c0.739,0.698,1.728,0.983,2.763,0.922C24.422,36.991,27.159,32.646,31.323,30.211z"
   id="path7577" />
	</g>
	<g
   id="g7579">
		<path
   fill="#27A8E0"
   d="M11.332,21.293c-2.693-0.002-4.873,1.787-4.876,4.001c-0.002,2.214,2.177,4.011,4.864,4.011    c2.689,0.004,9.324-1.781,9.326-3.995C20.65,23.097,14.019,21.295,11.332,21.293z"
   id="path7581" />
		<path
   fill="#57C6E9"
   d="M20.644,25.143c-0.308-2.159-6.708-3.885-9.353-3.887c-2.713-0.004-4.909,1.8-4.909,4.032    c-0.002,1.016,0.467,1.932,1.22,2.643C10.977,24.761,16.019,23.778,20.644,25.143z"
   id="path7583" />
	</g>
	<g
   id="g7585">
		<path
   fill="#27A8E0"
   d="M4.115,40.213c-3.097,1.279-4.756,4.381-3.705,6.929c1.053,2.551,4.415,3.581,7.512,2.302    c3.095-1.277,9.885-6.492,8.831-9.041C15.702,37.85,7.21,38.938,4.115,40.213z"
   id="path7587" />
		<path
   fill="#57C6E9"
   d="M16.673,40.209C15.29,37.87,7.096,38.934,4.052,40.19c-3.124,1.285-4.792,4.411-3.733,6.978    c0.481,1.174,1.463,2.004,2.667,2.463C5.362,44.377,10.695,40.841,16.673,40.209z"
   id="path7589" />
	</g>
	<g
   id="g7591">
		<path
   fill="#27A8E0"
   d="M19.477,53.942c-1.286,3.095-0.263,6.459,2.283,7.517c2.546,1.059,5.652-0.592,6.938-3.688    c1.283-3.093,2.391-11.581-0.155-12.638C25.99,44.075,20.76,50.849,19.477,53.942z"
   id="path7593" />
		<path
   fill="#57C6E9"
   d="M28.348,45.055c-2.632-0.674-7.669,5.874-8.933,8.916c-1.297,3.117-0.267,6.509,2.297,7.573    c1.171,0.486,2.451,0.38,3.628-0.145C23.3,56.003,24.569,49.73,28.348,45.055z"
   id="path7595" />
	</g>
</g>
</svg>
